X:795
T:Ale is Dear, The
R:reel
Z:transcribed by Dave Marshall
M:C|
K:Bdor
|: f2ef Bfef | faea cAAf | f2ef Bfef | faec B4 :|
|: BABc d2cB | A4 ABcA |1 BABc d2cB | efec B4 :|2 d2fd c2ec | efec B4 |
